X: 236
T: Da niaochuang
L: 1/8
M: 2/4
K: A
c2c e [I:setbarnb 1]| 
f2c2 | 
c B A G | 
f eF2 | 
f2e2 | 
f2e2 | 
f e d c | 
B4 | 
f e d c | 
B3A | 
F E F A | 
B4 |]

@@@ Tune index: 9110
